shader_type canvas_item;

uniform sampler2D screen_texture: hint_screen_texture;
uniform vec4 water_color: source_color;
uniform sampler2D wave_noise: repeat_enable;


void fragment() {
	// Called for every pixel the material is visible on.
}
